X:82
T:Indifference 
C:J.Colombo et T.Murena
N:
L:1/8
Q:1/4=200
M:3/4
K:G
z6 | zB, EG Bd | (3cdc B4 | zB, EG Bd | (3cdc B4 | zB, ^DF AB | (3cdc c2 (3efe | 
^d2 (3c=dc B2 | B6 | BB, EG Bd | (3cdc B4 | BB, EG Bd | (3cdc B4 | zB, EG Bd | 
cB E^D FE | GF AG FE | (3EFE ^D4 | z2 AG FE | F3E ^DE | ^D3C B,C | B,6 | z2 ag fe | 
fe ^de dc | Bc BA GF | (3FGF E4 | zB, EG Bd | (3cdc B4 | zB, EG Bd | (3cdc B4 | 
zB, EG Be | =fe dc BA | ^GA Bc de | (3ded c4 | c2 A2 B2 | ce Ac F2 | zA Bc BA | 
Be GB E2 | zE FG FE | G6 | (3FGF E2 ^D2 | E6 | z2 zG FE | ^DF Ac B^A | B^d fc' b^a | 
be' gb eg | Be gb ag | ac' fa ^df | B^d fa gf | eg Be GB | E3G FE | ^DF Ac B^A | 
B^d fc' b^a | be' gb eg | Be gb ag | ac' fa ^df | B^d fa gf | e2 ^de gb | e'6 | 
e6 | EB, EG Bd | E2 E2 ^D2 | D6 | B4 B2 | B6 | ^D6 | E2 ^G2 B2 | e4 e2 | e6 | 
A6 | d6 | A2 B2 c2 | B6 | G6 | F4 F2 | F2 G2 F2 | F6 | FF E2 ^D2 | D6 | B4 B2 | 
B6 | ^D6 | E2 ^G2 B2 | e4 e2 | =f6 | e6 | E4 E2 | z4 G2 | G6 | D2 C2 B,2 | B,6 | 
A,4 B,2 | G,6 | G,B, EG Bd | 


